X: 1549
T: Hughie Martin's Schottische
B: australian traditional tunes wiki
M:4/4
L:1/8
R: Schottische
Q: 1/4=100
K:D
V:1 
|"D"f2-f>ed2A2|"A7"ce/c/ B>A "G"B2-B>f|"A7"g2-g>fe2A2|"D"Bc/B/ A>FA2-A>d|f2-f>ed2A2|"A7"ce/c/ B>A "G"B2-B>f|"A7"g2-g>f e2A>c|"D"e2d2d2 ((3BcB)||
"D"A>F A>d "G"B>G B>d|"D"A>F A<df4|"A7"g>f g>fe2A2|"D"Bc/B/ A>FA4|A>F A>d "G"B>G B>d|"D"A>F A<df4|"A7"g>f g>f e2A>c|"D"e2d2d2e2||
"D"f<a f>d A2-A>G|F<A d>ef2a2|"A7"a<b a>g "Em"e2B2|"A7"c2((3BcB) "D"A4|f<a f>d A2-A>G|F<A d>ef2a2|"A7"a<b a>g e>A B>c|"D"d2f2d4||
% abcbook-tune_id 6342d53a3544e0402f50b932


% abcbook-boost 0
% abcbook-tablature 
% abcbook-transpose 
% abcbook-lastupdated 1665324370517
% abcbook-soundfonts 
% abcbook-repeats 1
% NFF Book 2015

